X:1
T: Lady Menzies of Castle Menzies
C:William Marshall
R:Jig
Q:180
K:C
M:6/8
L:1/16
G2|:c6 e2d2c2|B2A2G2 d6|c6 e2d2c2|f2e2f2 a2g2f2|
e4c2 c2B2c2|A2B2c2 d6|G2A2B2 c2d2e2|f2e2d2 g2f2e2:|
|:f4A2 a2g2f2|e2d2c2 g6|e4g2 e2d2c2|a4f2 a2g2f2|
G,2C2E2 G2c2e2|F2A2d2 f4a2|g2f2e2 f2d2B2|1G2A2B2 c2d2e2:|2G2A2B2 c4||
